; generated by PrusaSlicer 2.7.2+win64 on 2025-04-30 at 07:39:05 UTC


;
;
; 

; external perimeters extrusion width = 0.45mm
; perimeters extrusion width = 0.45mm
; infill extrusion width = 0.45mm
; solid infill extrusion width = 0.45mm
; top infill extrusion width = 0.40mm
; support material extrusion width = 0.35mm
; first layer extrusion width = 0.42mm

M73 P0 R27
M73 Q0 S28
M201 X1000 Y1000 Z200 E5000 ; sets maximum accelerations, mm/sec^2
M203 X200 Y200 Z12 E120 ; sets maximum feedrates, mm / sec
M204 S1250 T1250 ; sets acceleration (S) and retract acceleration (R), mm/sec^2
M205 X8.00 Y8.00 Z0.40 E4.50 ; sets the jerk limits, mm/sec
M205 S0 T0 ; sets the minimum extruding and travel feed rate, mm/sec

; printing object Gehaeuse_unten.stl id:0 copy 0
; stop printing object Gehaeuse_unten.stl id:0 copy 0

;TYPE:Custom
M862.3 P "MK3S" ; printer model check
M862.1 P0.4 ; nozzle diameter check
M115 U3.13.2 ; tell printer latest fw version
G90 ; use absolute coordinates
M83 ; extruder relative mode
M104 S215 ; set extruder temp
M140 S60 ; set bed temp
M190 S60 ; wait for bed temp
M109 S215 ; wait for extruder temp
G28 W ; home all without mesh bed level
G80 X96.6144 Y85.6694 W56.7712 H38.6612 ; mesh bed levelling

G1 Z0.2 F720
G1 Y-3 F1000 ; go outside print area
G92 E0
G1 X60 E9 F1000 ; intro line
G1 X100 E12.5 F1000 ; intro line
M73 Q0 S27

G92 E0
M221 S95

; Don't change E values below. Excessive value can damage the printer.

M907 E538 ; set extruder motor current
G21 ; set units to millimeters
G90 ; use absolute coordinates
M83 ; use relative distances for extrusion

M900 K0.05 ; Filament gcode LA 1.5
M900 K30 ; Filament gcode LA 1.0




M107
;LAYER_CHANGE
;Z:0.2
;HEIGHT:0.2
G1 E-.8 F2100
G1 Z.6 F720
G1 X97.931 Y87.328 F10800
G1 Z.2 F720
G1 E.8 F2100
M204 S800
;TYPE:Skirt/Brim
;WIDTH:0.42
G1 F1200
G1 X98.925 Y86.499 E.04058
G1 X99.483 Y86.215 E.01963
G1 X100.19 Y85.985 E.02331
G1 X101.18 Y85.858 E.0313
G1 X149.192 Y85.887 E1.50538
G1 X149.81 Y85.985 E.01962
G1 X150.53 Y86.221 E.02376
G1 X151.075 Y86.499 E.01918
G1 X151.676 Y86.936 E.0233
G1 X152.119 Y87.379 E.01964
G1 X152.556 Y87.98 E.0233
G1 X152.84 Y88.538 E.01963
G1 X153.07 Y89.245 E.02331
G1 X153.197 Y90.235 E.0313
G1 X153.197 Y119.765 E.92589
G1 X153.07 Y120.755 E.0313
G1 X152.84 Y121.462 E.02331
G1 X152.556 Y122.02 E.01963
G1 X152.119 Y122.621 E.0233
G1 X151.676 Y123.064 E.01964
G1 X151.075 Y123.501 E.0233
G1 X150.517 Y123.785 E.01963
G1 X149.81 Y124.015 E.02331
G1 X148.82 Y124.142 E.0313
G1 X101.18 Y124.142 E1.49372
G1 X100.19 Y124.015 E.0313
G1 X99.483 Y123.785 E.02331
G1 X98.925 Y123.501 E.01963
G1 X98.324 Y123.064 E.0233
G1 X97.881 Y122.621 E.01964
G1 X97.444 Y122.02 E.0233
G1 X97.16 Y121.462 E.01963
G1 X96.93 Y120.755 E.02331
G1 X96.803 Y119.765 E.0313
G1 X96.803 Y90.235 E.92589
G1 X96.93 Y89.245 E.0313
G1 X97.16 Y88.538 E.02331
G1 X97.444 Y87.98 E.01963
G1 X97.895 Y87.377 E.02361
M204 S1000
; printing object Gehaeuse_unten.stl id:0 copy 0
;WIPE_START
G1 F8640
G1 X97.931 Y87.328 E-.01404
G1 X98.925 Y86.499 E-.29886
G1 X99.483 Y86.215 E-.14457
G1 X100.19 Y85.985 E-.17167
G1 X100.924 Y85.891 E-.17086
;WIPE_END
G1 Z.6 F720
G1 X109.09 Y115.097 F10800
G1 Z.2 F720
M73 P1 R27
M73 Q1 S27
G1 E.8 F2100
M204 S800
;TYPE:Support material
G1 F1200
G1 X109.09 Y117.833 E.08579
G1 X106.72 Y119.202 E.08582
G1 X104.35 Y117.833 E.08582
G1 X104.35 Y115.097 E.08579
G1 X106.72 Y113.728 E.08582
G1 X109.041 Y115.068 E.08403
M204 S1000
G1 X109.041 Y115.068 F10800
G1 X108.66 Y117.886
M204 S800
G1 F1200
G1 X108.66 Y115.24 E.08296
G1 X108.241 Y114.998 E.01517
G1 X108.241 Y117.932 E.09199
G1 X107.822 Y118.174 E.01517
G1 X107.822 Y114.756 E.10717
G1 X107.403 Y114.515 E.01516
G1 X107.403 Y118.415 E.12228
G1 X106.984 Y118.657 E.01517
G1 X106.984 Y114.273 E.13746
G1 X106.72 Y114.12 E.00957
G1 X106.565 Y114.21 E.00562
G1 X106.565 Y118.72 E.14141
G1 X106.146 Y118.478 E.01517
G1 X106.146 Y114.452 E.12623
G1 X105.727 Y114.694 E.01517
G1 X105.727 Y118.236 E.11106
G1 X105.308 Y117.995 E.01516
G1 X105.308 Y114.935 E.09594
G1 X104.889 Y115.177 E.01517
G1 X104.889 Y117.949 E.08691
M204 S1000
;WIPE_START
G1 F8640
G1 X104.889 Y115.177 E-.64006
G1 X105.308 Y114.935 E-.11173
G1 X105.308 Y115.144 E-.04821
;WIPE_END
G1 Z.6 F720
G1 X105.2 Y90.517 F10800
G1 Z.2 F720
G1 E.8 F2100
M204 S800
G1 F1200
G1 X105.2 Y93.253 E.08579
G1 X102.83 Y94.622 E.08582
G1 X100.46 Y93.253 E.08582
G1 X100.46 Y90.517 E.08579
G1 X102.83 Y89.148 E.08582
G1 X105.151 Y90.488 E.08403
M204 S1000
G1 X105.151 Y90.488 F10800
G1 X104.47 Y93.479
M204 S800
G1 F1200
G1 X104.47 Y90.487 E.09381
G1 X104.051 Y90.245 E.01517
G1 X104.051 Y93.525 E.10284
G1 X103.632 Y93.767 E.01517
G1 X103.632 Y90.003 E.11802
G1 X103.213 Y89.761 E.01517
G1 X103.213 Y94.009 E.13319
G1 X102.83 Y94.23 E.01386
G1 X102.794 Y89.561 E.1464
G1 X102.375 Y89.803 E.01517
G1 X102.375 Y93.967 E.13056
G1 X101.956 Y93.725 E.01517
G1 X101.956 Y90.045 E.11538
G1 X101.537 Y90.287 E.01517
G1 X101.537 Y93.483 E.10021
G1 X101.118 Y93.242 E.01516
G1 X101.118 Y90.333 E.09121
M204 S1000
;WIPE_START
G1 F8640
G1 X101.118 Y93.242 E-.6717
G1 X101.537 Y93.483 E-.11161
G1 X101.537 Y93.411 E-.01669
;WIPE_END
G1 Z.6 F720
G1 X148.09 Y92.097 F10800
G1 Z.2 F720
G1 E.8 F2100
M204 S800
G1 F1200
G1 X148.09 Y94.833 E.08579
G1 X145.72 Y96.202 E.08582
G1 X143.35 Y94.833 E.08582
G1 X143.35 Y92.097 E.08579
G1 X145.72 Y90.728 E.08582
G1 X148.041 Y92.068 E.08403
M204 S1000
G1 X148.041 Y92.068 F10800
G1 X147.625 Y94.906
M204 S800
G1 F1200
G1 X147.625 Y92.22 E.08422
G1 X147.206 Y91.978 E.01517
G1 X147.206 Y94.952 E.09325
G1 X146.787 Y95.194 E.01517
G1 X146.787 Y91.736 E.10842
G1 X146.368 Y91.494 E.01517
G1 X146.368 Y95.436 E.1236
G1 X145.949 Y95.678 E.01517
G1 X145.949 Y91.252 E.13877
G1 X145.72 Y91.12 E.00829
G1 X145.53 Y91.23 E.00688
G1 X145.53 Y95.7 E.14015
G1 X145.111 Y95.458 E.01517
G1 X145.111 Y91.472 E.12498
G1 X144.692 Y91.714 E.01517
G1 X144.692 Y95.216 E.1098
G1 X144.273 Y94.974 E.01517
G1 X144.273 Y91.956 E.09463
G1 X143.854 Y92.198 E.01517
G1 X143.854 Y94.928 E.0856
M204 S1000
;WIPE_START
G1 F8640
G1 X143.854 Y92.198 E-.63036
G1 X144.273 Y91.956 E-.11173
G1 X144.273 Y92.207 E-.05791
;WIPE_END
G1 Z.6 F720
G1 X148.09 Y115.097 F10800
G1 Z.2 F720
G1 E.8 F2100
M204 S800
G1 F1200
G1 X148.09 Y117.833 E.08579
G1 X145.72 Y119.202 E.08582
G1 X143.35 Y117.833 E.08582
G1 X143.35 Y115.097 E.08579
G1 X145.72 Y113.728 E.08582
G1 X148.041 Y115.068 E.08403
M204 S1000
G1 X148.041 Y115.068 F10800
M73 P1 R26
G1 X147.625 Y117.906
M204 S800
G1 F1200
G1 X147.625 Y115.22 E.08422
G1 X147.206 Y114.978 E.01517
G1 X147.206 Y117.952 E.09325
G1 X146.787 Y118.194 E.01517
G1 X146.787 Y114.736 E.10842
G1 X146.368 Y114.494 E.01517
G1 X146.368 Y118.436 E.1236
G1 X145.949 Y118.678 E.01517
G1 X145.949 Y114.252 E.13877
G1 X145.72 Y114.12 E.00829
G1 X145.53 Y114.23 E.00688
G1 X145.53 Y118.7 E.14015
G1 X145.111 Y118.458 E.01517
G1 X145.111 Y114.472 E.12498
G1 X144.692 Y114.714 E.01517
G1 X144.692 Y118.216 E.1098
G1 X144.273 Y117.974 E.01517
G1 X144.273 Y114.956 E.09463
G1 X143.854 Y115.198 E.01517
G1 X143.854 Y117.928 E.0856
M204 S1000
;WIPE_START
G1 F8640
G1 X143.854 Y115.198 E-.63036
G1 X144.273 Y114.956 E-.11173
G1 X144.273 Y115.207 E-.05791
;WIPE_END
G1 Z.6 F720
G1 X106.291 Y94.046 F10800
G1 Z.2 F720
G1 E.8 F2100
M204 S800
;TYPE:Perimeter
;WIDTH:0.419999
G1 F1200
G1 X106.406 Y93.914 E.00549
G1 X106.467 Y93.658 E.00825
G1 X106.467 Y90.112 E.11118
G1 X106.413 Y89.87 E.00777
G1 X106.183 Y89.621 E.01063
G1 X105.069 Y89.001 E.03997
G1 X105.646 Y89.022 E.0181
G1 X145.328 Y89.019 E1.2442
;WIDTH:0.414203
G1 X145.593 Y89.013 E.00818
M73 P2 R26
M73 Q2 S27
;WIDTH:0.419722
G1 X146.112 Y89.022 E.01626
;WIDTH:0.419999
G1 X148.687 Y89.022 E.08074
G1 X149.192 Y89.091 E.01598
G1 X149.527 Y89.262 E.01179
G1 X149.793 Y89.528 E.01179
G1 X149.964 Y89.863 E.01179
G1 X150.033 Y90.36 E.01573
G1 X150.033 Y90.648 E.00903
;WIDTH:0.469793
G1 X150.008 Y90.996 E.01238
;WIDTH:0.519587
G1 X149.983 Y91.344 E.01383
;WIDTH:0.569381
G1 X149.958 Y91.692 E.01527
G1 X149.958 Y95.238 E.15523
;WIDTH:0.576227
G1 X149.974 Y95.617 E.01682
;WIDTH:0.53717
G1 X149.994 Y95.839 E.00916
;WIDTH:0.498113
G1 X150.013 Y96.06 E.0084
;WIDTH:0.459056
G1 X150.033 Y96.282 E.00771
;WIDTH:0.419999
G1 X150.033 Y113.648 E.5445
;WIDTH:0.469793
G1 X150.008 Y113.996 E.01238
;WIDTH:0.519587
G1 X149.983 Y114.344 E.01383
;WIDTH:0.569381
G1 X149.958 Y114.692 E.01527
G1 X149.958 Y118.238 E.15523
;WIDTH:0.576227
G1 X149.974 Y118.706 E.02077
;WIDTH:0.53717
G1 X149.994 Y119.016 E.01277
;WIDTH:0.498113
G1 X150.013 Y119.326 E.01176
;WIDTH:0.459056
G1 X150.033 Y119.637 E.01078
;WIDTH:0.419999
G1 X149.964 Y120.137 E.01583
G1 X149.793 Y120.472 E.01179
G1 X149.527 Y120.738 E.01179
G1 X149.192 Y120.909 E.01179
G1 X148.684 Y120.978 E.01607
;WIDTH:0.425216
G1 X146.13 Y120.975 E.08119
;WIDTH:0.437606
G1 X145.31 Y120.978 E.02691
;WIDTH:0.419999
G1 X110.677 Y120.978 E1.08589
;WIDTH:0.425216
G1 X107.13 Y120.975 E.11275
;WIDTH:0.437606
G1 X106.31 Y120.978 E.02691
;WIDTH:0.419999
G1 X101.351 Y120.978 E.15549
G1 X100.808 Y120.909 E.01716
G1 X100.473 Y120.738 E.01179
G1 X100.207 Y120.472 E.01179
G1 X100.036 Y120.137 E.01179
G1 X99.967 Y119.703 E.01378
G1 X99.967 Y95.649 E.7542
G1 X99.943 Y94.848 E.02513
G1 X99.885 Y94.301 E.01725
G1 X100.403 Y94.671 E.01996
G1 X102.545 Y95.92 E.07774
G1 X102.851 Y95.997 E.00989
G1 X103.113 Y95.921 E.00855
G1 X106.225 Y94.122 E.11271
G1 X106.252 Y94.091 E.00129
M204 S1000
G1 X106.252 Y94.091 F10800
G1 X106.021 Y93.804
M204 S800
;TYPE:External perimeter
G1 F1200
G1 X106.09 Y93.658 E.00506
G1 X106.09 Y90.112 E.11118
G1 X105.995 Y89.948 E.00594
G1 X105.054 Y89.41 E.03399
;WIDTH:0.457753
G1 X104.203 Y88.993 E.03269
G1 X103.756 Y88.859 E.0161
;WIDTH:0.428516
G1 X102.911 Y88.423 E.03049
G1 X103.628 Y88.449 E.023
;WIDTH:0.449221
G1 X104.124 Y88.545 E.01707
G1 X104.645 Y88.608 E.01773
;WIDTH:0.419999
G1 X105.646 Y88.645 E.03141
G1 X148.788 Y88.645 E1.35268
G1 X149.31 Y88.728 E.01657
G1 X149.752 Y88.953 E.01555
G1 X150.102 Y89.303 E.01552
G1 X150.327 Y89.745 E.01555
G1 X150.41 Y90.36 E.01946
G1 X150.41 Y119.733 E.92097
G1 X150.327 Y120.255 E.01657
G1 X150.102 Y120.697 E.01555
G1 X149.752 Y121.047 E.01552
G1 X149.31 Y121.272 E.01555
G1 X148.788 Y121.355 E.01657
G1 X101.212 Y121.355 E1.49171
G1 X100.69 Y121.272 E.01657
G1 X100.248 Y121.047 E.01555
G1 X99.898 Y120.697 E.01552
G1 X99.673 Y120.255 E.01555
G1 X99.59 Y119.733 E.01657
G1 X99.59 Y95.649 E.75514
G1 X99.566 Y94.859 E.02478
G1 X99.396 Y93.541 E.04167
;WIDTH:0.420684
G1 X99.392 Y90.271 E.10271
;WIDTH:0.426578
G1 X99.441 Y90 E.00879
;WIDTH:0.464813
G1 X99.564 Y89.736 E.01022
;WIDTH:0.502659
G1 X99.916 Y89.307 E.02121
;WIDTH:0.528532
G1 X100.301 Y88.984 E.02029
G1 X100.748 Y88.754 E.0203
;WIDTH:0.518877
G1 X101.262 Y88.602 E.02121
;WIDTH:0.482323
G1 X102.471 Y88.45 E.04452
;WIDTH:0.439602
G1 X102.747 Y88.424 E.00914
G1 X102.339 Y88.624 E.01499
;WIDTH:0.482323
G1 X101.93 Y88.824 E.01663
;WIDTH:0.495225
G1 X101.093 Y89.118 E.03336
;WIDTH:0.522325
G1 X100.631 Y89.347 E.02055
G1 X100.206 Y89.666 E.02118
;WIDTH:0.503288
G1 X100.013 Y89.877 E.01095
;WIDTH:0.472812
G1 X99.819 Y90.089 E.01027
;WIDTH:0.442336
G1 X99.77 Y90.271 E.00626
;WIDTH:0.420684
G1 X99.77 Y93.54 E.10268
;WIDTH:0.425656
G1 X99.776 Y93.603 E.00201
G1 X100.171 Y94.029 E.01849
;WIDTH:0.419999
G1 X100.593 Y94.345 E.01653
G1 X102.79 Y95.616 E.07958
G1 X102.924 Y95.595 E.00425
G1 X105.969 Y93.834 E.11029
M204 S1000
;WIPE_START
G1 F8640
G1 X106.021 Y93.804 E-.01386
G1 X106.09 Y93.658 E-.03729
G1 X106.09 Y90.415 E-.74885
;WIPE_END
G1 Z.6 F720
M73 P3 R26
G1 X142.101 Y95.318 F10800
G1 Z.2 F720
M73 Q3 S27
G1 E.8 F2100
M204 S800
;TYPE:Perimeter
G1 F1200
G1 X142.083 Y95.238 E.00257
G1 X142.083 Y91.692 E.11118
G1 X142.104 Y91.537 E.0049
G1 X142.19 Y91.361 E.00614
G1 X142.366 Y91.202 E.00744
G1 X145.439 Y89.431 E.11121
;WIDTH:0.414203
G1 X145.72 Y89.364 E.00892
;WIDTH:0.419722
G1 X146.003 Y89.429 E.0091
;WIDTH:0.419999
G1 X149.074 Y91.202 E.11118
;WIDTH:0.469793
G1 X149.193 Y91.365 E.00716
;WIDTH:0.519587
G1 X149.313 Y91.528 E.00802
;WIDTH:0.569381
G1 X149.432 Y91.692 E.00887
G1 X149.432 Y95.238 E.15523
;WIDTH:0.576227
G1 X149.426 Y95.35 E.00497
G1 X149.338 Y95.444 E.00571
;WIDTH:0.53717
G1 X149.25 Y95.539 E.00532
;WIDTH:0.498113
G1 X149.162 Y95.633 E.00487
;WIDTH:0.459056
G1 X149.074 Y95.728 E.00448
;WIDTH:0.419999
G1 X146.003 Y97.501 E.11118
G1 X145.762 Y97.576 E.00791
G1 X145.517 Y97.54 E.00776
G1 X145.437 Y97.501 E.00279
G1 X142.313 Y95.694 E.11316
G1 X142.141 Y95.487 E.00844
G1 X142.115 Y95.377 E.00354
M204 S1000
G1 X142.115 Y95.377 F10800
G1 X142.46 Y95.238
M204 S800
;TYPE:External perimeter
G1 F1200
G1 X142.46 Y91.692 E.11118
G1 X142.496 Y91.581 E.00366
G1 X142.554 Y91.528 E.00246
G1 X145.626 Y89.755 E.11121
G1 X145.72 Y89.73 E.00305
G1 X145.814 Y89.755 E.00305
G1 X148.886 Y91.528 E.11121
G1 X148.98 Y91.692 E.00593
G1 X148.98 Y95.238 E.11118
G1 X148.886 Y95.402 E.00593
G1 X145.814 Y97.175 E.11121
G1 X145.652 Y97.188 E.0051
G1 X142.537 Y95.39 E.11277
G1 X142.487 Y95.292 E.00345
M204 S1000
;WIPE_START
G1 F8640
G1 X142.46 Y95.238 E-.01394
G1 X142.46 Y91.833 E-.78606
;WIPE_END
G1 Z.6 F720
G1 X149.151 Y114.307 F10800
G1 Z.2 F720
G1 E.8 F2100
M204 S800
;TYPE:Perimeter
;WIDTH:0.469793
G1 F1200
G1 X149.193 Y114.365 E.00254
;WIDTH:0.519587
G1 X149.313 Y114.528 E.00802
;WIDTH:0.569381
G1 X149.432 Y114.692 E.00887
G1 X149.432 Y118.238 E.15523
;WIDTH:0.576227
G1 X149.426 Y118.35 E.00497
G1 X149.338 Y118.444 E.00571
;WIDTH:0.53717
G1 X149.25 Y118.539 E.00532
;WIDTH:0.498113
G1 X149.162 Y118.633 E.00487
;WIDTH:0.459056
G1 X149.074 Y118.728 E.00448
;WIDTH:0.419999
G1 X148.214 Y119.225 E.03114
;WIDTH:0.425216
G1 X146.004 Y120.504 E.08117
;WIDTH:0.431802
G1 X145.72 Y120.583 E.00953
G1 X145.437 Y120.501 E.00953
;WIDTH:0.419999
G1 X142.366 Y118.728 E.11118
G1 X142.19 Y118.569 E.00744
G1 X142.104 Y118.393 E.00614
G1 X142.083 Y118.238 E.0049
G1 X142.083 Y114.692 E.11118
G1 X142.157 Y114.412 E.00908
G1 X142.338 Y114.219 E.0083
G1 X145.437 Y112.429 E.11221
G1 X145.664 Y112.356 E.00748
G1 X145.876 Y112.375 E.00667
G1 X146.003 Y112.429 E.00433
G1 X149.074 Y114.202 E.11118
;WIDTH:0.469793
G1 X149.116 Y114.259 E.00251
M204 S1000
G1 X149.116 Y114.259 F10800
G1 X148.886 Y114.528
M204 S800
;TYPE:External perimeter
;WIDTH:0.419999
G1 F1200
G1 X148.98 Y114.692 E.00593
G1 X148.98 Y118.238 E.11118
G1 X148.886 Y118.402 E.00593
G1 X145.814 Y120.175 E.11121
G1 X145.72 Y120.2 E.00305
G1 X145.626 Y120.175 E.00305
G1 X142.554 Y118.402 E.11121
G1 X142.467 Y118.29 E.00445
G1 X142.46 Y118.238 E.00165
G1 X142.46 Y114.692 E.11118
G1 X142.529 Y114.546 E.00506
G1 X145.626 Y112.755 E.11217
G1 X145.772 Y112.737 E.00461
G1 X145.814 Y112.755 E.00143
G1 X148.834 Y114.498 E.10933
M204 S1000
;WIPE_START
G1 F8640
G1 X148.886 Y114.528 E-.01386
G1 X148.98 Y114.692 E-.04365
G1 X148.98 Y117.908 E-.74249
;WIPE_END
G1 Z.6 F720
G1 X110.35 Y118.291 F10800
G1 Z.2 F720
G1 E.8 F2100
M204 S800
;TYPE:Perimeter
G1 F1200
G1 X110.336 Y118.393 E.00323
G1 X110.25 Y118.569 E.00614
G1 X110.074 Y118.728 E.00744
;WIDTH:0.425216
G1 X107.004 Y120.504 E.11274
;WIDTH:0.431802
G1 X106.72 Y120.583 E.00953
G1 X106.437 Y120.501 E.00953
;WIDTH:0.419999
G1 X103.366 Y118.728 E.11118
G1 X103.148 Y118.502 E.00985
G1 X103.083 Y118.238 E.00852
G1 X103.083 Y114.692 E.11118
G1 X103.123 Y114.482 E.0067
G1 X103.229 Y114.312 E.00628
G1 X103.366 Y114.202 E.00551
G1 X106.437 Y112.429 E.11118
G1 X106.722 Y112.353 E.00925
G1 X106.875 Y112.374 E.00484
G1 X110.074 Y114.202 E.11552
G1 X110.266 Y114.385 E.00832
G1 X110.353 Y114.628 E.00809
G1 X110.357 Y114.692 E.00201
G1 X110.357 Y118.232 E.11099
M204 S1000
G1 X109.98 Y118.238 F10800
M204 S800
;TYPE:External perimeter
G1 F1200
G1 X109.944 Y118.349 E.00366
G1 X109.886 Y118.402 E.00246
G1 X106.814 Y120.175 E.11121
G1 X106.72 Y120.2 E.00305
G1 X106.626 Y120.175 E.00305
G1 X103.554 Y118.402 E.11121
G1 X103.463 Y118.271 E.005
G1 X103.46 Y114.692 E.11222
G1 X103.509 Y114.565 E.00427
G1 X103.554 Y114.528 E.00183
G1 X106.626 Y112.755 E.11121
G1 X106.772 Y112.737 E.00461
G1 X109.886 Y114.528 E.11263
