; generated by PrusaSlicer 2.7.2+win64 on 2025-04-30 at 07:37:40 UTC


;
;

;
;

;
;

;
;

;
;
; 

; external perimeters extrusion width = 0.45mm
; perimeters extrusion width = 0.45mm
; infill extrusion width = 0.45mm
; solid infill extrusion width = 0.45mm
; top infill extrusion width = 0.42mm
; support material extrusion width = 0.36mm
; first layer extrusion width = 0.50mm

M73 P0 R14
M201 X4000 Y4000 Z200 E2500 ; sets maximum accelerations, mm/sec^2
M203 X300 Y300 Z40 E100 ; sets maximum feedrates, mm / sec
M204 P4000 R1200 T4000 ; sets acceleration (P, T) and retract acceleration (R), mm/sec^2
M205 X8.00 Y8.00 Z2.00 E10.00 ; sets the jerk limits, mm/sec
M205 S0 T0 ; sets the minimum extruding and travel feed rate, mm/sec

M486 S0
M486 AGehaeuse_unten.stl
M486 S-1

;TYPE:Custom
M17 ; enable steppers
M862.1 P0.4 ; nozzle diameter check
M862.3 P "MK4" ; printer model check
M862.5 P2 ; g-code level check
M862.6 P"Input shaper" ; FW feature check
M115 U5.1.2+13478

M555 X95.4932 Y91.2181 W51.64 H37.53

G90 ; use absolute coordinates
M83 ; extruder relative mode

M140 S60 ; set bed temp
M104 T0 S170 ; set extruder temp for bed leveling
M109 T0 R170 ; wait for temp

M84 E ; turn off E motor

G28 ; home all without mesh bed level

G1 X42 Y-4 Z5 F4800

M302 S160 ; lower cold extrusion limit to 160C


G1 E-2 F2400 ; retraction


M84 E ; turn off E motor

G29 P9 X10 Y-4 W32 H4

M106 S100

G0 Z40 F10000

M190 S60 ; wait for bed temp

M107

;
; MBL
;
M84 E ; turn off E motor
G29 P1 ; invalidate mbl & probe print area
G29 P1 X0 Y0 W50 H20 C ; probe near purge place
G29 P3.2 ; interpolate mbl probes
G29 P3.13 ; extrapolate mbl outside probe area
G29 A ; activate mbl

; prepare for purge
M104 S230
G0 X0 Y-4 Z15 F4800 ; move away and ready for the purge
M109 S230

G92 E0
M569 S0 E ; set spreadcycle mode for extruder

;
; Extrude purge line
;
G92 E0 ; reset extruder position
G1 E2 F2400 ; deretraction after the initial one before nozzle cleaning
G0 E7 X15 Z0.2 F500 ; purge
G0 X25 E4 F500 ; purge
G0 X35 E4 F650 ; purge
G0 X45 E4 F800 ; purge
G0 X48 Z0.05 F8000 ; wipe, move close to the bed
G0 X51 Z0.2 F8000 ; wipe, move quickly away from the bed

G92 E0
M221 S100 ; set flow to 100%
G21 ; set units to millimeters
G90 ; use absolute coordinates
M83 ; use relative distances for extrusion
M900 K0.05 ; Filament gcode


M572 S0.038 ; Filament gcode


M142 S36 ; set heatbreak target temp
M107
;LAYER_CHANGE
;Z:0.2
;HEIGHT:0.2
G1 E-.7 F2100
M73 P1 R14
M486 S0
G1 Z.8 F720
G1 X144.273 Y99.155 F18000
G1 Z.2 F720
G1 E.7 F2100
M204 P500
;TYPE:Support material
;WIDTH:0.5
G1 F2400
G1 X144.273 Y101.741 E.09828
G1 X142.033 Y103.035 E.09832
G1 X139.793 Y101.741 E.09832
G1 X139.793 Y99.155 E.09828
G1 X142.033 Y97.862 E.0983
G1 X144.214 Y99.121 E.09571
M204 P4000
M204 T4000
G1 X144.214 Y99.121 F18000
G1 X143.596 Y101.895
M204 P500
G1 F2400
G1 X143.596 Y99.239 E.10094
G1 X143.024 Y98.909 E.0251
G1 X143.024 Y101.987 E.11698
G1 X142.453 Y102.317 E.02507
G1 X142.453 Y98.579 E.14207
G1 X142.033 Y98.337 E.01842
G1 X141.882 Y98.424 E.00662
G1 X141.882 Y102.472 E.15385
G1 X141.31 Y102.142 E.0251
G1 X141.31 Y98.754 E.12877
G1 X140.739 Y99.084 E.02507
G1 X140.739 Y102.05 E.11273
M204 P4000
G1 E-.7 F2100
G1 X144.273 Y122.155 Z.556 F18000
G1 Z.2 F720
G1 E.7 F2100
M204 P500
G1 F2400
G1 X144.273 Y124.741 E.09828
G1 X142.033 Y126.035 E.09832
G1 X139.793 Y124.741 E.09832
G1 X139.793 Y122.155 E.09828
G1 X142.033 Y120.862 E.0983
G1 X144.214 Y122.121 E.09571
M204 P4000
G1 X144.214 Y122.121 F18000
G1 X143.596 Y124.895
M204 P500
G1 F2400
G1 X143.596 Y122.239 E.10094
G1 X143.024 Y121.909 E.0251
G1 X143.024 Y124.987 E.11698
G1 X142.453 Y125.317 E.02507
G1 X142.453 Y121.579 E.14207
G1 X142.033 Y121.337 E.01842
G1 X141.882 Y121.424 E.00662
G1 X141.882 Y125.472 E.15385
G1 X141.31 Y125.142 E.0251
G1 X141.31 Y121.754 E.12877
G1 X140.739 Y122.084 E.02507
G1 X140.739 Y125.05 E.11273
M204 P4000
G1 E-.7 F2100
G1 X114.308 Y122.892 Z.663 F18000
G1 X110.393 Y122.573 Z.723
G1 X106.479 Y122.253 Z.766
G1 X105.273 Y122.155 Z.775
G1 Z.2 F720
G1 E.7 F2100
M204 P500
G1 F2400
G1 X105.273 Y124.741 E.09828
G1 X103.033 Y126.035 E.09832
G1 X100.793 Y124.741 E.09832
G1 X100.793 Y122.155 E.09828
G1 X103.033 Y120.862 E.0983
G1 X105.214 Y122.121 E.09571
M204 P4000
G1 X105.214 Y122.121 F18000
G1 X104.744 Y124.809
M204 P500
G1 F2400
G1 X104.744 Y122.324 E.09445
G1 X104.173 Y121.994 E.02507
G1 X104.173 Y124.902 E.11052
G1 X103.601 Y125.232 E.0251
G1 X103.601 Y121.665 E.13557
G1 X103.03 Y121.338 E.02501
G1 X103.03 Y125.558 E.16039
G1 X102.459 Y125.228 E.02507
G1 X102.459 Y121.668 E.1353
G1 X101.887 Y121.998 E.0251
G1 X101.887 Y124.898 E.11022
G1 X101.316 Y124.568 E.02507
G1 X101.316 Y122.09 E.09418
M204 P4000
G1 E-.7 F2100
G1 X101.316 Y122.09 F18000
G1 X101.383 Y97.575 Z.628
G1 Z.2 F720
G1 E.7 F2100
M73 P1 R13
M204 P500
G1 F2400
G1 X101.383 Y100.161 E.09828
G1 X99.143 Y101.455 E.09832
G1 X96.903 Y100.161 E.09832
G1 X96.903 Y97.575 E.09828
G1 X99.143 Y96.282 E.0983
G1 X101.324 Y97.541 E.09571
M204 P4000
G1 X101.324 Y97.541 F18000
G1 X100.745 Y100.293
M204 P500
G1 F2400
G1 X100.745 Y97.681 E.09927
G1 X100.173 Y97.351 E.0251
G1 X100.173 Y100.385 E.11531
G1 X99.602 Y100.715 E.02507
G1 X99.602 Y97.021 E.1404
G1 X99.143 Y96.757 E.02012
G1 X99.031 Y96.822 E.00492
G1 X99.031 Y100.915 E.15556
G1 X98.459 Y100.585 E.0251
G1 X98.459 Y97.151 E.13051
G1 X97.888 Y97.481 E.02507
G1 X97.888 Y100.255 E.10543
G1 X97.317 Y99.925 E.02507
M73 P2 R13
G1 X97.317 Y97.574 E.08935
M204 P4000
G1 E-.7 F2100
G1 X97.317 Y97.574 F18000
G1 X102.711 Y101.094 Z.312
G1 Z.2 F720
G1 E.7 F2100
M204 P500
;TYPE:Perimeter
;WIDTH:0.499999
G1 F2400
G1 X102.826 Y100.951 E.00697
G1 X102.9 Y100.641 E.01211
G1 X102.9 Y97.095 E.13477
G1 X102.833 Y96.799 E.01153
G1 X102.549 Y96.496 E.01578
G1 X101.859 Y96.11 E.03005
G1 X102.456 Y96.125 E.0227
G1 X138.095 Y96.125 E1.35451
;WIDTH:0.533431
G1 X141.641 Y96.142 E.14463
;WIDTH:0.567605
G1 X141.774 Y96.159 E.00585
;WIDTH:0.601778
G1 X141.906 Y96.176 E.00618
G1 X141.794 Y96.235 E.00588
;WIDTH:0.567605
G1 X141.682 Y96.293 E.0055
;WIDTH:0.533431
G1 X138.619 Y98.081 E.14466
;WIDTH:0.499999
G1 X138.406 Y98.274 E.01092
G2 X138.276 Y98.675 I.703 J.448 E.0162
G1 X138.276 Y102.221 E.13477
G1 X138.281 Y102.299 E.00297
G1 X138.387 Y102.596 E.01199
G1 X138.619 Y102.815 E.01213
G1 X141.69 Y104.588 E.13477
G1 X141.788 Y104.635 E.00413
G1 X142.084 Y104.678 E.01137
G1 X142.376 Y104.588 E.01161
G1 X145.447 Y102.815 E.13477
G1 X145.778 Y102.34 E.022
;WIDTH:0.496226
G1 X145.785 Y102.221 E.00449
;WIDTH:0.48938
G1 X145.785 Y98.675 E.13164
;WIDTH:0.499999
G1 X145.447 Y98.081 E.02597
G1 X144.606 Y97.595 E.03692
;WIDTH:0.501082
G1 X142.376 Y96.307 E.09811
;WIDTH:0.545891
G1 X142.205 Y96.239 E.0077
;WIDTH:0.5907
G1 X142.033 Y96.17 E.00844
G1 X142.229 Y96.148 E.00898
;WIDTH:0.545891
G1 X142.425 Y96.126 E.00825
;WIDTH:0.501082
G1 X145 Y96.125 E.0981
;WIDTH:0.499999
G1 X145.467 Y96.189 E.01791
G1 X145.769 Y96.343 E.01288
G1 X146.008 Y96.582 E.01285
G1 X146.162 Y96.884 E.01288
G1 X146.226 Y97.343 E.01761
G1 X146.231 Y98.675 E.05062
;WIDTH:0.48938
G1 X146.231 Y102.221 E.13164
;WIDTH:0.496226
G1 X146.228 Y102.379 E.00596
;WIDTH:0.499999
G1 X146.231 Y121.675 E.73337
;WIDTH:0.48938
G1 X146.231 Y125.221 E.13164
;WIDTH:0.496226
G1 X146.228 Y125.379 E.00596
;WIDTH:0.499999
G1 X146.226 Y126.62 E.04717
G1 X146.162 Y127.082 E.01773
G1 X146.008 Y127.384 E.01288
G1 X145.769 Y127.623 E.01285
G1 X145.467 Y127.777 E.01288
G1 X144.997 Y127.841 E.01803
;WIDTH:0.525528
G1 X143.721 Y127.828 E.05121
;WIDTH:0.551057
G1 X142.444 Y127.815 E.05396
;WIDTH:0.591469
G1 X142.351 Y127.795 E.00434
;WIDTH:0.631881
G1 X142.259 Y127.775 E.00461
;WIDTH:0.672292
G1 X142.167 Y127.755 E.00493
G1 X142.241 Y127.707 E.00462
;WIDTH:0.631881
G1 X142.315 Y127.659 E.00432
;WIDTH:0.591469
G1 X142.389 Y127.611 E.00402
;WIDTH:0.551057
G1 X143.488 Y126.961 E.05395
;WIDTH:0.525528
G1 X144.588 Y126.312 E.05125
;WIDTH:0.499999
G1 X145.447 Y125.815 E.03772
G1 X145.778 Y125.34 E.022
;WIDTH:0.496226
G1 X145.785 Y125.221 E.00449
;WIDTH:0.48938
G1 X145.785 Y121.675 E.13164
;WIDTH:0.499999
G1 X145.447 Y121.081 E.02597
G1 X142.376 Y119.308 E.13477
G2 X141.966 Y119.219 I-.38 J.765 E.01611
G1 X141.69 Y119.308 E.01102
G1 X138.619 Y121.081 E.13477
G1 X138.528 Y121.143 E.00419
G1 X138.345 Y121.375 E.01123
G1 X138.276 Y121.675 E.0117
G1 X138.276 Y125.221 E.13477
G2 X138.406 Y125.622 I.833 J-.047 E.0162
G1 X138.619 Y125.815 E.01092
G1 X141.69 Y127.588 E.13477
;WIDTH:0.540171
G1 X141.776 Y127.631 E.00398
;WIDTH:0.580342
G1 X141.862 Y127.675 E.00432
;WIDTH:0.620513
G1 X141.948 Y127.718 E.00462
;WIDTH:0.660684
G1 X142.033 Y127.761 E.00489
G1 X141.931 Y127.781 E.00534
;WIDTH:0.620513
G1 X141.828 Y127.801 E.00504
;WIDTH:0.580342
G1 X141.725 Y127.821 E.00469
;WIDTH:0.540171
G1 X141.623 Y127.841 E.0043
;WIDTH:0.499999
G1 X106.99 Y127.841 E1.31627
;WIDTH:0.525528
G1 X105.217 Y127.828 E.07115
;WIDTH:0.551057
G1 X103.444 Y127.815 E.07491
;WIDTH:0.591469
G1 X103.351 Y127.795 E.00434
;WIDTH:0.631881
G1 X103.259 Y127.775 E.00461
;WIDTH:0.672292
G1 X103.167 Y127.755 E.00493
G1 X103.241 Y127.707 E.00462
;WIDTH:0.631881
G1 X103.315 Y127.659 E.00432
;WIDTH:0.591469
G1 X103.389 Y127.611 E.00402
;WIDTH:0.551057
G1 X104.918 Y126.713 E.07492
;WIDTH:0.525528
G1 X106.447 Y125.815 E.07116
;WIDTH:0.499999
G1 X106.661 Y125.622 E.01095
G2 X106.79 Y125.221 I-.704 J-.448 E.01618
G1 X106.79 Y121.675 E.13477
G2 X106.66 Y121.273 I-.887 J.065 E.01621
G1 X106.447 Y121.081 E.0109
G1 X103.274 Y119.26 E.13904
G1 X102.959 Y119.22 E.01207
G1 X102.69 Y119.308 E.01076
G1 X99.619 Y121.081 E.13477
G2 X99.325 Y121.42 I.456 J.692 E.01727
G1 X99.276 Y121.675 E.00987
G1 X99.276 Y125.221 E.13477
G1 X99.355 Y125.541 E.01253
G1 X99.619 Y125.815 E.01446
G1 X102.69 Y127.588 E.13477
;WIDTH:0.540171
G1 X102.776 Y127.631 E.00398
;WIDTH:0.580342
G1 X102.862 Y127.675 E.00432
;WIDTH:0.620513
G1 X102.948 Y127.718 E.00462
;WIDTH:0.660684
G1 X103.033 Y127.761 E.00489
G1 X102.931 Y127.781 E.00534
;WIDTH:0.620513
G1 X102.828 Y127.801 E.00504
;WIDTH:0.580342
G1 X102.725 Y127.821 E.00469
;WIDTH:0.540171
G1 X102.623 Y127.841 E.0043
;WIDTH:0.499999
G1 X97.664 Y127.841 E.18847
G1 X97.159 Y127.777 E.01935
G1 X96.857 Y127.623 E.01288
G1 X96.618 Y127.384 E.01285
G1 X96.465 Y127.082 E.01287
G1 X96.4 Y126.677 E.01559
G1 X96.4 Y102.632 E.91386
G1 X96.328 Y101.494 E.04334
G2 X97.061 Y102 I4.599 J-5.881 E.03387
G1 X98.799 Y103.008 E.07636
G2 X99.169 Y103.1 I.381 J-.743 E.01462
G1 X99.486 Y103.008 E.01255
G1 X101.826 Y101.657 E.10269
G1 X102.648 Y101.173 E.03625
G1 X102.674 Y101.141 E.00157
M204 P4000
G1 X102.674 Y101.141 F18000
G1 X102.371 Y100.808
M204 P500
;TYPE:External perimeter
G1 F2400
G1 X102.443 Y100.641 E.00691
G1 X102.443 Y97.095 E.13477
G2 X102.326 Y96.895 I-.275 J.027 E.00909
G1 X101.367 Y96.361 E.04172
G1 X100.755 Y96.113 E.0251
G3 X99.463 Y95.473 I2.489 J-6.648 E.05489
G1 X100.421 Y95.477 E.03641
G2 X101.593 Y95.646 I1.784 J-8.21 E.04504
G1 X102.456 Y95.668 E.03281
G1 X145.098 Y95.668 E1.62066
G1 X145.61 Y95.749 E.0197
G1 X146.041 Y95.969 E.01839
G1 X146.383 Y96.31 E.01836
G1 X146.602 Y96.741 E.01837
G1 X146.683 Y97.343 E.02309
G1 X146.683 Y126.713 E1.11624
M73 P3 R13
G1 X146.602 Y127.225 E.0197
G1 X146.383 Y127.656 E.01837
G1 X146.041 Y127.998 E.01838
G1 X145.61 Y128.217 E.01837
G1 X145.098 Y128.298 E.0197
G1 X97.529 Y128.298 E1.80792
G1 X97.016 Y128.217 E.01974
G1 X96.585 Y127.998 E.01837
G1 X96.244 Y127.656 E.01836
G1 X96.024 Y127.225 E.01839
G1 X95.943 Y126.713 E.0197
G1 X95.943 Y102.632 E.91523
G1 X95.882 Y101.594 E.03952
G3 X95.739 Y100.809 I5.358 J-1.385 E.03035
;WIDTH:0.46073
G1 X95.704 Y100.523 E.01001
;WIDTH:0.42146
G1 X95.706 Y97.22 E.10396
;WIDTH:0.462476
G1 X95.768 Y96.961 E.00929
;WIDTH:0.503491
G1 X95.83 Y96.703 E.01016
;WIDTH:0.548282
G1 X96.178 Y96.299 E.02241
;WIDTH:0.554565
G1 X96.592 Y95.977 E.02231
G1 X97.076 Y95.722 E.02327
;WIDTH:0.549281
G1 X97.55 Y95.558 E.02112
;WIDTH:0.523708
G1 X98.01 Y95.48 E.01865
G1 X98.783 Y95.483 E.0309
G1 X98.099 Y95.853 E.03109
;WIDTH:0.538401
G1 X97.397 Y96.131 E.03111
;WIDTH:0.547074
G1 X96.948 Y96.352 E.02098
;WIDTH:0.548282
G2 X96.317 Y96.869 I2.269 J3.418 E.03434
;WIDTH:0.508134
G1 X96.135 Y97.048 E.00987
;WIDTH:0.467986
G1 X96.082 Y97.25 E.00738
;WIDTH:0.42146
G1 X96.082 Y100.523 E.10302
;WIDTH:0.450367
G1 X96.106 Y100.606 E.00293
;WIDTH:0.479273
G1 X96.13 Y100.689 E.00313
;WIDTH:0.499999
G2 X96.861 Y101.324 I11.102 J-12.03 E.03681
G1 X97.291 Y101.604 E.0195
G1 X99.028 Y102.612 E.07633
G2 X99.257 Y102.613 I.115 J-.284 E.00892
G1 X102.32 Y100.838 E.13455
M204 P4000
G1 X102.434 Y100.454 F18000
G1 E-.7 F2100
G1 X128.922 Y101.744 Z.663 F18000
G1 X132.844 Y101.935 Z.723
G1 X136.767 Y102.126 Z.766
G1 X138.733 Y102.221 Z.781
G1 Z.2 F720
G1 E.7 F2100
M204 P500
G1 F2400
G1 X138.733 Y98.675 E.13477
G3 X138.847 Y98.477 I.278 J.028 E.00895
G1 X141.919 Y96.704 E.13481
G3 X142.147 Y96.704 I.114 J.247 E.00894
G1 X145.219 Y98.477 E.13481
G1 X145.333 Y98.675 E.00868
G1 X145.333 Y102.221 E.13477
G1 X145.219 Y102.419 E.00868
G1 X142.147 Y104.193 E.13482
G1 X141.978 Y104.216 E.00648
G1 X141.919 Y104.193 E.00241
G1 X138.826 Y102.405 E.13578
G3 X138.748 Y102.279 I.256 J-.245 E.00567
M204 P4000
G1 X138.735 Y101.88 F18000
G1 E-.7 F2100
G1 X145.219 Y121.477 Z.56 F18000
G1 Z.2 F720
G1 E.7 F2100
M204 P500
G1 F2400
G1 X145.333 Y121.675 E.00868
G1 X145.333 Y125.221 E.13477
G1 X145.219 Y125.419 E.00868
G1 X142.147 Y127.193 E.13482
G1 X142.033 Y127.223 E.00448
G1 X141.919 Y127.193 E.00448
G1 X138.847 Y125.419 E.13482
G1 X138.742 Y125.284 E.0065
G1 X138.733 Y125.221 E.00242
G1 X138.733 Y121.675 E.13477
G1 X138.802 Y121.511 E.00676
G1 X138.847 Y121.477 E.00214
G1 X141.919 Y119.704 E.13481
G1 X142.096 Y119.682 E.00678
G1 X145.167 Y121.447 E.13462
M204 P4000
G1 X145.321 Y121.816 F18000
G1 E-.7 F2100
G1 X118.902 Y124.124 Z.663 F18000
G1 X114.99 Y124.465 Z.723
G1 X111.077 Y124.807 Z.766
G1 X106.333 Y125.221 Z.795
G1 Z.2 F720
G1 E.7 F2100
M204 P500
G1 F2400
G3 X106.219 Y125.419 I-.277 J-.028 E.00895
G1 X103.147 Y127.193 E.13482
G3 X102.919 Y127.193 I-.114 J-.248 E.00894
G1 X99.847 Y125.419 E.13482
G1 X99.737 Y125.261 E.00732
G1 X99.733 Y121.675 E.13629
G3 X99.847 Y121.477 I.304 J.043 E.0089
G1 X102.919 Y119.704 E.13481
G1 X103.096 Y119.682 E.00678
G1 X106.219 Y121.477 E.1369
G1 X106.317 Y121.59 E.00568
G1 X106.333 Y121.675 E.00329
G1 X106.333 Y125.161 E.13249
M204 P4000
G1 X106.092 Y125.481 F18000
G1 E-.7 F2100
G1 X132.599 Y126.287 Z.663 F18000
G1 X136.525 Y126.407 Z.723
G1 X140.45 Y126.526 Z.766
G1 X146.038 Y126.696 Z.797
G1 Z.2 F720
G1 E.7 F2100
M204 P500
;TYPE:Solid infill
;WIDTH:0.541424
G1 F2400
G1 X145.548 Y126.206 E.02872
G1 X145.101 Y126.464 E.02139
G1 X145.724 Y127.087 E.03652
G3 X145.336 Y127.404 I-.592 J-.327 E.02128
G1 X144.654 Y126.722 E.03998
G1 X144.207 Y126.98 E.02139
G1 X144.679 Y127.452 E.02767
G1 X143.974 Y127.452 E.02922
G1 X143.609 Y127.087 E.0214
M204 P4000
G1 E-.7 F2100
G1 X143.609 Y127.087 F18000
G1 X140.803 Y100.717 Z.663
G1 X140.391 Y96.847 Z.722
G1 Z.2 F720
G1 E.7 F2100
M204 P500
;WIDTH:0.50043
G1 F2400
G1 X140.058 Y96.514 E.01792
G1 X139.411 Y96.514 E.02461
G1 X139.83 Y96.933 E.02254
G1 X139.42 Y97.17 E.01802
G1 X138.764 Y96.514 E.03529
G1 X138.117 Y96.514 E.02461
G1 X139.01 Y97.407 E.04804
G1 X138.6 Y97.644 E.01802
G1 X137.47 Y96.514 E.06079
G1 X136.823 Y96.514 E.02461
G1 X138.227 Y97.918 E.07553
G1 X138.09 Y98.043 E.00706
G1 X137.964 Y98.302 E.01096
G1 X136.176 Y96.514 E.09619
G1 X135.529 Y96.514 E.02461
G1 X137.888 Y98.873 E.12691
G1 X137.888 Y99.52 E.02461
G1 X134.882 Y96.514 E.16172
M73 P4 R13
G1 X134.235 Y96.514 E.02461
G1 X137.888 Y100.167 E.19653
G1 X137.888 Y100.814 E.02461
G1 X133.588 Y96.514 E.23134
G1 X132.94 Y96.514 E.02465
G1 X138.093 Y101.666 E.2772
M204 P4000
G1 E-.7 F2100
G1 X138.093 Y101.666 F18000
G1 X145.671 Y102.774 Z.334
G1 Z.2 F720
G1 E.7 F2100
M204 P500
G1 F2400
G1 X145.841 Y102.944 E.00915
G1 X145.841 Y103.591 E.02461
G1 X145.49 Y103.239 E.01891
G1 X145.079 Y103.476 E.01805
G1 X145.841 Y104.238 E.041
G1 X145.841 Y104.885 E.02461
G1 X144.669 Y103.713 E.06305
